lib/flags/l/798.svg

<svg xmlns="http://www.w3.org/2000/svg" fill="none" viewBox="0 0 32 24"><mask id="798_svg__a" width="32" height="24" x="0" y="0" mask-type="alpha" maskUnits="userSpaceOnUse"><path fill="#fff" d="M0 0H32V24H0z"/></mask><g mask="url(#798_svg__a)"><path fill="#00B4FF" fill-rule="evenodd" d="M0 0V24H32V0H0Z" clip-rule="evenodd"/><mask id="798_svg__b" width="32" height="24" x="0" y="0" mask-type="alpha" maskUnits="userSpaceOnUse"><path fill="#fff" fill-rule="evenodd" d="M0 0V24H32V0H0Z" clip-rule="evenodd"/></mask><g mask="url(#798_svg__b)"><path fill="#2B409A" d="M0 0H18V14H0z"/><mask id="798_svg__c" width="18" height="14" x="0" y="0" mask-type="alpha" maskUnits="userSpaceOnUse"><path fill="#fff" d="M0 0H18V14H0z"/></mask><g mask="url(#798_svg__c)"><path fill="#F7FCFF" d="M-2.00427 12.9999L1.95668 14.7371L18.0899 1.88878L20.1792 -0.692749L15.9435 -1.27337L9.36317 4.26332L4.06667 7.99375L-2.00427 12.9999Z"/><path fill="#F50100" d="M-1.46204 14.217L0.555885 15.2251L19.4289 -0.932617H16.5955L-1.46204 14.217Z"/><path fill="#F7FCFF" d="M20.0043 12.9999L16.0433 14.7371L-0.0898743 1.88878L-2.17919 -0.692749L2.05648 -1.27337L8.63683 4.26332L13.9333 7.99375L20.0043 12.9999Z"/><path fill="#F50100" d="M19.8691 13.8732L17.8512 14.8813L9.81489 7.96339L7.43229 7.19046L-2.3802 -0.684069H0.453194L10.2602 7.00356L12.8651 7.93038L19.8691 13.8732Z"/><mask id="798_svg__d" width="22" height="18" x="-2" y="-2" fill="#000" maskUnits="userSpaceOnUse"><path fill="#fff" d="M-2-2H20V16H-2z"/><path fill-rule="evenodd" d="M9.98451 0H7.98451V6H0V8H7.98451V14H9.98451V8H18V6H9.98451V0Z" clip-rule="evenodd"/></mask><path fill="#F50100" fill-rule="evenodd" d="M9.98451 0H7.98451V6H0V8H7.98451V14H9.98451V8H18V6H9.98451V0Z" clip-rule="evenodd"/><path fill="#F7FCFF" d="M7.98451 0V-1.5H6.48451V0H7.98451ZM9.98451 0H11.4845V-1.5H9.98451V0ZM7.98451 6V7.5H9.48451V6H7.98451ZM0 6V4.5H-1.5V6H0ZM0 8H-1.5V9.5H0V8ZM7.98451 8H9.48451V6.5H7.98451V8ZM7.98451 14H6.48451V15.5H7.98451V14ZM9.98451 14V15.5H11.4845V14H9.98451ZM9.98451 8V6.5H8.48451V8H9.98451ZM18 8V9.5H19.5V8H18ZM18 6H19.5V4.5H18V6ZM9.98451 6H8.48451V7.5H9.98451V6ZM7.98451 1.5H9.98451V-1.5H7.98451V1.5ZM9.48451 6V0H6.48451V6H9.48451ZM0 7.5H7.98451V4.5H0V7.5ZM1.5 8V6H-1.5V8H1.5ZM7.98451 6.5H0V9.5H7.98451V6.5ZM9.48451 14V8H6.48451V14H9.48451ZM9.98451 12.5H7.98451V15.5H9.98451V12.5ZM8.48451 8V14H11.4845V8H8.48451ZM18 6.5H9.98451V9.5H18V6.5ZM16.5 6V8H19.5V6H16.5ZM9.98451 7.5H18V4.5H9.98451V7.5ZM8.48451 0V6H11.4845V0H8.48451Z" mask="url(#798_svg__d)"/></g><path fill="#FFD018" fill-rule="evenodd" d="M26.8568 10.6848L27.464 9.55935L28.7961 9.51956L27.7647 8.65817L28.1203 7.49557L27.2312 8.0298L26.1071 7.34814L26.2159 8.63981L25.2088 9.24492L26.5162 9.40834L26.8568 10.6848ZM23.464 11.5594L22.8568 12.6848L22.5162 11.4083L21.2088 11.2449L22.2159 10.6398L22.1071 9.34814L23.2312 10.0298L24.1203 9.49557L23.7647 10.6582L24.7961 11.5196L23.464 11.5594ZM20.8568 14.6848L21.464 13.5594L22.7961 13.5196L21.7647 12.6582L22.1203 11.4956L21.2312 12.0298L20.1071 11.3481L20.2159 12.6398L19.2088 13.2449L20.5162 13.4083L20.8568 14.6848ZM16.8568 18.6848L17.464 17.5594L18.7961 17.5196L17.7647 16.6582L18.1203 15.4956L17.2312 16.0298L16.1071 15.3481L16.2159 16.6398L15.2088 17.2449L16.5162 17.4083L16.8568 18.6848ZM12.9742 21.7355L11.8741 22.3875L12.2396 21.118L11.2031 20.3046H12.378L12.95 19.1413L13.5624 20.3046H14.5997L13.6961 21.118L14.1365 22.3875L12.9742 21.7355ZM17.464 21.5594L16.8568 22.6848L16.5162 21.4083L15.2088 21.2449L16.2159 20.6398L16.1071 19.3481L17.2312 20.0298L18.1203 19.4956L17.7647 20.6582L18.7961 21.5196L17.464 21.5594ZM21.464 19.5594L20.8568 20.6848L20.5162 19.4083L19.2088 19.2449L20.2159 18.6398L20.1071 17.3481L21.2312 18.0298L22.1203 17.4956L21.7647 18.6582L22.7961 19.5196L21.464 19.5594ZM25.464 17.5594L24.8568 18.6848L24.5162 17.4083L23.2088 17.2449L24.2159 16.6398L24.1071 15.3481L25.2312 16.0298L26.1203 15.4956L25.7647 16.6582L26.7961 17.5196L25.464 17.5594ZM26.8568 16.6848L27.464 15.5594L28.7961 15.5196L27.7647 14.6582L28.1203 13.4956L27.2312 14.0298L26.1071 13.3481L26.2159 14.6398L25.2088 15.2449L26.5162 15.4083L26.8568 16.6848Z" clip-rule="evenodd"/></g></g></svg>

<svg xmlns="http://www.w3.org/2000/svg" fill="none" viewBox="0 0 32 24"><mask id="798_svg__a" width="32" height="24" x="0" y="0" maskUnits="userSpaceOnUse"><path fill="#fff" d="M0 0h32v24H0z"/></mask><g mask="url(#798_svg__a)"><path fill="#00B4FF" fill-rule="evenodd" d="M0 0v24h32V0H0z" clip-rule="evenodd"/><mask id="798_svg__b" width="32" height="24" x="0" y="0" maskUnits="userSpaceOnUse"><path fill="#fff" fill-rule="evenodd" d="M0 0v24h32V0H0z" clip-rule="evenodd"/></mask><g mask="url(#798_svg__b)"><path fill="#2B409A" d="M0 0h18v14H0z"/><mask id="798_svg__c" width="18" height="14" x="0" y="0" maskUnits="userSpaceOnUse"><path fill="#fff" d="M0 0h18v14H0z"/></mask><g mask="url(#798_svg__c)"><path fill="#F7FCFF" d="M-2.004 13l3.96 1.737L18.09 1.889l2.09-2.582-4.236-.58-6.58 5.536-5.297 3.73L-2.004 13z"/><path fill="#F50100" d="M-1.462 14.217l2.018 1.008L19.429-.933h-2.833l-18.058 15.15z"/><path fill="#F7FCFF" d="M20.004 13l-3.96 1.737L-.09 1.889-2.18-.693l4.236-.58 6.58 5.536 5.297 3.73L20.004 13z"/><path fill="#F50100" d="M19.87 13.873l-2.019 1.009-8.036-6.918-2.383-.773L-2.38-.684H.453l9.807 7.688 2.605.927 7.004 5.942z"/><mask id="798_svg__d" width="22" height="18" x="-2" y="-2" fill="#000" maskUnits="userSpaceOnUse"><path fill="#fff" d="M-2-2h22v18H-2z"/><path fill-rule="evenodd" d="M9.985 0h-2v6H0v2h7.985v6h2V8H18V6H9.985V0z" clip-rule="evenodd"/></mask><path fill="#F50100" fill-rule="evenodd" d="M9.985 0h-2v6H0v2h7.985v6h2V8H18V6H9.985V0z" clip-rule="evenodd"/><path fill="#F7FCFF" d="M7.985 0v-1.5h-1.5V0h1.5zm2 0h1.5v-1.5h-1.5V0zm-2 6v1.5h1.5V6h-1.5zM0 6V4.5h-1.5V6H0zm0 2h-1.5v1.5H0V8zm7.985 0h1.5V6.5h-1.5V8zm0 6h-1.5v1.5h1.5V14zm2 0v1.5h1.5V14h-1.5zm0-6V6.5h-1.5V8h1.5zM18 8v1.5h1.5V8H18zm0-2h1.5V4.5H18V6zM9.985 6h-1.5v1.5h1.5V6zm-2-4.5h2v-3h-2v3zm1.5 4.5V0h-3v6h3zM0 7.5h7.985v-3H0v3zm1.5.5V6h-3v2h3zm6.485-1.5H0v3h7.985v-3zm1.5 7.5V8h-3v6h3zm.5-1.5h-2v3h2v-3zM8.485 8v6h3V8h-3zM18 6.5H9.985v3H18v-3zM16.5 6v2h3V6h-3zM9.985 7.5H18v-3H9.985v3zM8.485 0v6h3V0h-3z" mask="url(#798_svg__d)"/></g><path fill="#FFD018" fill-rule="evenodd" d="M26.857 10.685l.607-1.126 1.332-.04-1.031-.86.355-1.163-.889.534-1.124-.682.109 1.292-1.007.605 1.307.163.34 1.277zm-3.393.874l-.607 1.126-.34-1.277-1.308-.163 1.007-.605-.109-1.292 1.124.682.89-.534-.356 1.162 1.031.862-1.332.04zm-2.607 3.126l.607-1.126 1.332-.04-1.031-.86.355-1.163-.889.534-1.124-.682.109 1.292-1.007.605 1.307.163.34 1.277zm-4 4l.607-1.126 1.332-.04-1.031-.86.355-1.163-.889.534-1.124-.682.109 1.292-1.007.605 1.307.163.34 1.277zm-3.883 3.05l-1.1.653.366-1.27-1.037-.813h1.175l.572-1.164.612 1.164H14.6l-.904.813.44 1.27-1.162-.652zm4.49-.176l-.607 1.126-.34-1.277-1.308-.163 1.007-.605-.109-1.292 1.124.682.89-.534-.356 1.162 1.031.862-1.332.04zm4-2l-.607 1.126-.34-1.277-1.308-.163 1.007-.605-.109-1.292 1.124.682.89-.534-.356 1.162 1.031.862-1.332.04zm4-2l-.607 1.126-.34-1.277-1.308-.163 1.007-.605-.109-1.292 1.124.682.89-.534-.356 1.162 1.031.862-1.332.04zm1.393-.874l.607-1.126 1.332-.04-1.031-.86.355-1.163-.889.534-1.124-.682.109 1.292-1.007.605 1.307.163.34 1.277z" clip-rule="evenodd"/></g></g></svg>
